img/m5.svg

<?xml version="1.0" encoding="UTF-8"?>
<svg width="48px" height="48px" viewBox="0 0 48 48" version="1.1" xmlns="http://www.w3.org/2000/svg" xmlns:xlink="http://www.w3.org/1999/xlink">
    <!-- Generator: Sketch 60.1 (88133) - https://sketch.com -->
    <title>m5</title>
    <desc>Created with Sketch.</desc>
    <g id="m5" stroke="none" stroke-width="1" fill="none" fill-rule="evenodd">
        <g id="编组-21">
            <path d="M1.71428571,0 L20.5714286,0 C21.5182024,5.86762902e-16 22.2857143,0.767511857 22.2857143,1.71428571 C22.2857143,2.66105957 21.5182024,3.42857143 20.5714286,3.42857143 L1.71428571,3.42857143 C0.767511857,3.42857143 1.15946357e-16,2.66105957 0,1.71428571 C-1.15946357e-16,0.767511857 0.767511857,-2.70169674e-16 1.71428571,0 Z" id="矩形" fill="#FFAA00"></path>
            <path d="M27.4285714,44.5714286 L46.2857143,44.5714286 C47.2324881,44.5714286 48,45.3389404 48,46.2857143 C48,47.2324881 47.2324881,48 46.2857143,48 L27.4285714,48 C26.4817976,48 25.7142857,47.2324881 25.7142857,46.2857143 C25.7142857,45.3389404 26.4817976,44.5714286 27.4285714,44.5714286 Z" id="矩形备份-44" fill="#FFAA00"></path>
            <path d="M4.76904446,8.57142857 L17.5166698,8.57142857 C18.2808287,8.57142857 18.5579312,8.65099338 18.8372963,8.80039946 C19.1166614,8.94980554 19.3359087,9.16905289 19.4853148,9.44841797 C19.6347209,9.72778305 19.7142857,10.0048855 19.7142857,10.7690445 L19.7142857,44.0880984 C19.7142857,44.8522573 19.6347209,45.1293598 19.4853148,45.4087249 C19.3359087,45.68809 19.1166614,45.9073373 18.8372963,46.0567434 C18.5579312,46.2061495 18.2808287,46.2857143 17.5166698,46.2857143 L4.76904446,46.2857143 C4.00488554,46.2857143 3.72778305,46.2061495 3.44841797,46.0567434 C3.16905289,45.9073373 2.94980554,45.68809 2.80039946,45.4087249 C2.65099338,45.1293598 2.57142857,44.8522573 2.57142857,44.0880984 L2.57142857,10.7690445 C2.57142857,10.0048855 2.65099338,9.72778305 2.80039946,9.44841797 C2.94980554,9.16905289 3.16905289,8.94980554 3.44841797,8.80039946 C3.72778305,8.65099338 4.00488554,8.57142857 4.76904446,8.57142857 Z" id="矩形备份-34" stroke="#935ED9" stroke-width="3.42857143"></path>
            <path d="M30.4833302,1.71428571 L43.2309555,1.71428571 C43.9951145,1.71428571 44.272217,1.79385052 44.551582,1.9432566 C44.8309471,2.09266268 45.0501945,2.31191003 45.1996005,2.59127511 C45.3490066,2.87064019 45.4285714,3.14774268 45.4285714,3.9119016 L45.4285714,37.2309555 C45.4285714,37.9951145 45.3490066,38.272217 45.1996005,38.551582 C45.0501945,38.8309471 44.8309471,39.0501945 44.551582,39.1996005 C44.272217,39.3490066 43.9951145,39.4285714 43.2309555,39.4285714 L30.4833302,39.4285714 C29.7191713,39.4285714 29.4420688,39.3490066 29.1627037,39.1996005 C28.8833386,39.0501945 28.6640913,38.8309471 28.5146852,38.551582 C28.3652791,38.272217 28.2857143,37.9951145 28.2857143,37.2309555 L28.2857143,3.9119016 C28.2857143,3.14774268 28.3652791,2.87064019 28.5146852,2.59127511 C28.6640913,2.31191003 28.8833386,2.09266268 29.1627037,1.9432566 C29.4420688,1.79385052 29.7191713,1.71428571 30.4833302,1.71428571 Z" id="矩形备份-36" stroke="#6AD2A9" stroke-width="3.42857143"></path>
        </g>
    </g>
</svg>

<svg xmlns="http://www.w3.org/2000/svg" width="48" height="48" fill="none" fill-rule="evenodd" xmlns:v="https://vecta.io/nano"><path d="M1.714 0H20.57c.947 0 1.714.768 1.714 1.714S21.518 3.43 20.57 3.43H1.714C.768 3.43 0 2.66 0 1.714S.768 0 1.714 0zM27.43 44.57h18.857c.947 0 1.714.768 1.714 1.714A1.72 1.72 0 0 1 46.286 48H27.43c-.947 0-1.714-.768-1.714-1.714s.768-1.714 1.714-1.714z" fill="#fa0"/><g stroke-width="3.429"><path d="M4.77 8.57h12.748c.764 0 1.04.08 1.32.23s.5.37.648.648.23.556.23 1.32v33.32c0 .764-.08 1.04-.23 1.32s-.37.5-.648.648-.556.23-1.32.23H4.77c-.764 0-1.04-.08-1.32-.23s-.5-.37-.648-.648-.23-.556-.23-1.32V10.77c0-.764.08-1.04.23-1.32s.37-.5.648-.648.556-.23 1.32-.23z" stroke="#935ed9"/><path d="M30.483 1.714H43.23c.764 0 1.04.08 1.32.23s.5.37.648.648.23.556.23 1.32v33.32c0 .764-.08 1.04-.23 1.32s-.37.5-.648.648-.556.23-1.32.23H30.483c-.764 0-1.04-.08-1.32-.23s-.5-.37-.648-.648-.23-.556-.23-1.32V3.912c0-.764.08-1.04.23-1.32s.37-.5.648-.648.556-.23 1.32-.23z" stroke="#6ad2a9"/></g></svg>
